assets/Cow face/Flat/cow_face_flat.svg

<svg width="32" height="32" viewBox="0 0 32 32" fill="none" xmlns="http://www.w3.org/2000/svg">
<path d="M13.98 2.53998C13.44 3.67998 13.45 5.05998 14.13 6.23998C14.672 7.17552 15.5345 7.81134 16.5 8.08566C17.4655 7.81134 18.328 7.17552 18.87 6.23998C19.55 5.05998 19.56 3.67998 19.02 2.53998C18.88 2.22998 19.18 1.90998 19.49 2.02998C19.74 2.12998 19.98 2.24998 20.21 2.40998C21.91 3.52998 22.49 5.78998 21.55 7.58998C20.5778 9.45173 18.3777 10.2116 16.5 9.44541C14.6223 10.2116 12.4221 9.45173 11.45 7.58998C10.51 5.78998 11.09 3.52998 12.79 2.40998C13.02 2.24998 13.26 2.12998 13.51 2.02998C13.82 1.90998 14.12 2.22998 13.98 2.53998Z" fill="#FFDEA7"/>
<path d="M20.5 7.5L16.5 6H11.69C11.22 6 10.76 6.07 10.33 6.2C9.85 6.34 9.13 6.84 9 7.4V22.47H25V10.69C25 10.3916 24.9721 10.0998 24.9189 9.81691L20.5 7.5Z" fill="#D3D3D3"/>
<path d="M6.09 10H7.05539C7.02467 10.1712 7.00585 10.348 7 10.53V20.17L16 18.63V14.12C16 11.54 14.72 9.13999 12.58 7.70999C11.7321 7.14226 10.7742 6.9904 9.89435 7.16187C9.47417 5.34947 7.84931 4 5.9 4H2.62C2.28 4 2 4.28 2 4.62V5.91C2 8.17 3.83 10 6.09 10Z" fill="#636363"/>
<path d="M22 10H25.91C28.17 10 30 8.17 30 5.91V4.62C30 4.28 29.72 4 29.37 4H26.09C24.4098 4 22.9673 5.01146 22.3377 6.45912C21.7242 6.1649 21.0365 6 20.31 6H16L18.38 8.38C19.349 9.34903 20.6393 9.9187 22 9.99194V10Z" fill="#636363"/>
<path d="M11 15C11 15.55 11.45 16 12 16C12.55 16 13 15.55 13 15V14C13 13.45 12.55 13 12 13C11.45 13 11 13.45 11 14V15Z" fill="#212121"/>
<path d="M20 16C20.55 16 21 15.55 21 15V14C21 13.45 20.55 13 20 13C19.45 13 19 13.45 19 14V15C19 15.55 19.45 16 20 16Z" fill="#212121"/>
<path d="M5.91 5.5C7.08 5.5 8.08 6.28 8.39 7.35C8.05 7.69 7.77 8.08 7.54 8.5H6.09C4.66 8.5 3.5 7.34 3.5 5.91V5.71C3.5 5.59 3.59 5.5 3.71 5.5H5.91Z" fill="#FBB8AB"/>
<path d="M26.09 5.5C24.92 5.5 23.92 6.28 23.61 7.35C23.95 7.68 24.24 8.07 24.46 8.5H25.91C27.34 8.5 28.5 7.34 28.5 5.91V5.71C28.5 5.59 28.41 5.5 28.29 5.5H26.09Z" fill="#FBB8AB"/>
<path d="M20.48 17C23.47 16.99 25.96 19.41 26 22.42C26.04 25.5 23.56 28 20.5 28H20.1914L15.9883 28.957L11.8125 28H11.5C8.43999 28 5.95999 25.5 5.99999 22.42C6.03999 19.39 8.57999 16.94 11.61 17H20.48Z" fill="#FBB8AB"/>
<path d="M13 22C13.5523 22 14 21.5523 14 21C14 20.4477 13.5523 20 13 20C12.4477 20 12 20.4477 12 21C12 21.5523 12.4477 22 13 22Z" fill="#FF8687"/>
<path d="M20.3044 28C19.2681 29.2176 17.7242 29.99 16 29.99C14.2757 29.99 12.7319 29.2176 11.6956 28H20.3044Z" fill="#FF8687"/>
<path d="M20 21C20 21.5523 19.5523 22 19 22C18.4477 22 18 21.5523 18 21C18 20.4477 18.4477 20 19 20C19.5523 20 20 20.4477 20 21Z" fill="#FF8687"/>
</svg>

<svg xmlns="http://www.w3.org/2000/svg" width="32" height="32" fill="none"><path fill="#FFDEA7" d="M13.98 2.54a3.992 3.992 0 0 0 2.52 5.546 3.992 3.992 0 0 0 2.52-5.546c-.14-.31.16-.63.47-.51.25.1.49.22.72.38a4.012 4.012 0 0 1 1.34 5.18 3.993 3.993 0 0 1-5.05 1.855 3.993 3.993 0 0 1-5.05-1.855c-.94-1.8-.36-4.06 1.34-5.18.23-.16.47-.28.72-.38.31-.12.61.2.47.51Z"/><path fill="#D3D3D3" d="m20.5 7.5-4-1.5h-4.81c-.47 0-.93.07-1.36.2-.48.14-1.2.64-1.33 1.2v15.07h16V10.69c0-.298-.028-.59-.081-.873L20.5 7.5Z"/><path fill="#636363" d="M6.09 10h.965c-.03.171-.05.348-.055.53v9.64l9-1.54v-4.51c0-2.58-1.28-4.98-3.42-6.41a3.561 3.561 0 0 0-2.686-.548A4.094 4.094 0 0 0 5.9 4H2.62c-.34 0-.62.28-.62.62v1.29C2 8.17 3.83 10 6.09 10ZM22 10h3.91C28.17 10 30 8.17 30 5.91V4.62c0-.34-.28-.62-.63-.62h-3.28a4.09 4.09 0 0 0-3.752 2.46A4.677 4.677 0 0 0 20.31 6H16l2.38 2.38A5.537 5.537 0 0 0 22 9.992V10Z"/><path fill="#212121" d="M11 15c0 .55.45 1 1 1s1-.45 1-1v-1c0-.55-.45-1-1-1s-1 .45-1 1v1ZM20 16c.55 0 1-.45 1-1v-1c0-.55-.45-1-1-1s-1 .45-1 1v1c0 .55.45 1 1 1Z"/><path fill="#FBB8AB" d="M5.91 5.5c1.17 0 2.17.78 2.48 1.85-.34.34-.62.73-.85 1.15H6.09A2.59 2.59 0 0 1 3.5 5.91v-.2c0-.12.09-.21.21-.21h2.2ZM26.09 5.5c-1.17 0-2.17.78-2.48 1.85.34.33.63.72.85 1.15h1.45a2.59 2.59 0 0 0 2.59-2.59v-.2c0-.12-.09-.21-.21-.21h-2.2ZM20.48 17c2.99-.01 5.48 2.41 5.52 5.42A5.502 5.502 0 0 1 20.5 28h-.309l-4.203.957L11.813 28H11.5c-3.06 0-5.54-2.5-5.5-5.58.04-3.03 2.58-5.48 5.61-5.42h8.87Z"/><path fill="#FF8687" d="M13 22a1 1 0 1 0 0-2 1 1 0 0 0 0 2ZM20.304 28A5.638 5.638 0 0 1 16 29.99 5.637 5.637 0 0 1 11.696 28h8.608ZM20 21a1 1 0 1 1-2 0 1 1 0 0 1 2 0Z"/></svg>
